X: 72
T:John Dwyer's
M:2/2
L:1/8
R:Reel
N:Title from Philippe Varlet
Z:Robert Greenway, 13/11/1998
K:G
ge|d~B3 GEDE|G~B3 dBGB|AGAB AGED|(3EFG AB c2Bc|
d~B3 GEDE|G~B3 dBGA|~B3A Bdge|dBAB G2:||
|:ga|b~g3 b~g3|a~f3 a~f3|b~g3 bgag|eaag a2ga|
b~g3 agef|~g3e dBGA|~B3A Bdge|dBAB G2:||
<end>
<start>
